!!!OTL: WAS MACHT IHR DASS IHR WEINET
!!!ARE: Europa, Mitteleuropa, Deutschland
!!!SCT: F1091
!!!YEM: Copyright 1995, estate of Helmut Schaffrath.
**kern
*ICvox
*Ivox
*M4/4
*k[b-e-]
*B-:
{4f
=1
4f
4b-
4b-
8dd
8cc
=2
2b-
4f}
{4b-
=3
4.ee-
8dd
4ee-
4ff
=4
2dd
4r}
{4dd
=5
4.cc
8g
4a
4b-
=6
2b-
4a}
{4dd
=7
4.cc
8b-
4a
4g
=8
2f
4r}
{4f
=9
4.cc
8b-
4a
4b-
=10
4.cc
8dd
4cc}
{4f
=11
4.ee-
8dd
4cc
4b-
=12
2cc
4r}
{4f
=13
4b-
4b-
4.dd
8ff
=14
2ff
4ee-}
{8b-
8cc
=15
4.dd
8b-
4dd
8cc
8b-
=16
2.b-}
==
!!!AGN: Trost - Lied, religioes, Abschied
!!!ONB: ESAC (Essen Associative Code) Database: FINK
!!!AMT: simple quadruple
!!!AIN: vox
!!!EED: Helmut Schaffrath
!!!EEV: 1.0
*-
